X: 7
T: Thrash your Fiddle
%R: jig
B: "Twenty Four Favourite Dances for the Year 1783", Thomas Straight, ed. p.4 #1
F: http://www.vwml.org/browse/browse-collections-dance-tune-books/browse-straights1783
Z: 2014 John Chambers <jc:trillian.mit.edu>
M: 6/8
L: 1/8
K: G
|:\
G2A BAG | d2=f A3 | efg d2c | ABG FED | G2A BAG |\
d2=f A3 | efg d2c | BcA G3 :: A2B cBA | e2d ^c3 |
d2e =fed | faA d3 | efg d2g | c2g B3 | Bcd G2d |\
F2d D3 | efg d2c | BcA G2z | efg d2c | BcA G3 :|
% - - - - - - - - - - Dance description - - - - - - - - - -
%%begintext align
%% Cast off 1 Cu & cross over the next 2 .|. cast
%% off 1 Cu cross up to the top :|. lead down 2
%% Cu up again & cast off .|: turn your part.r
with the right hand turn with the left hand :|:
%%endtext
